icons/4_Outdated/Coinbase v1.svg

<svg width="1024" height="1024" viewBox="0 0 1024 1024" fill="none" xmlns="http://www.w3.org/2000/svg">
<g clip-path="url(#clip0_3_512)">
<path d="M512 1024C794.77 1024 1024 794.77 1024 512C1024 229.23 794.77 0 512 0C229.23 0 0 229.23 0 512C0 794.77 229.23 1024 512 1024Z" fill="#728DBE"/>
<path d="M559.199 672C585.399 672 611.599 666.2 634.799 657.5L684.199 733.1C640.599 756.4 593.999 768 544.599 768C396.299 768 285.699 669.1 285.699 512C288.599 354.9 402.099 256 547.499 256C599.899 256 637.699 267.6 678.399 288L631.899 366.5C608.599 357.8 582.499 352 556.299 352C468.999 352 399.199 407.3 399.199 512C399.199 610.9 466.099 672 559.199 672Z" fill="white"/>
</g>
<defs>
<clipPath id="clip0_3_512">
<rect width="1024" height="1024" fill="white"/>
</clipPath>
</defs>
</svg>

<svg xmlns="http://www.w3.org/2000/svg" viewBox="0 0 1024 1024">
   <circle cx="512" cy="512" r="512" style="fill:#1652f0"/>
   <path d="M559.2 672c26.2 0 52.4-5.8 75.6-14.5l49.4 75.6C640.6 756.4 594 768 544.6 768c-148.3 0-258.9-98.9-258.9-256 2.9-157.1 116.4-256 261.8-256 52.4 0 90.2 11.6 130.9 32l-46.5 78.5c-23.3-8.7-49.4-14.5-75.6-14.5-87.3 0-157.1 55.3-157.1 160 0 98.9 66.9 160 160 160z" style="fill:#fff"/>
</svg>
